assets/icons/man.svg

<svg width="18" height="18" viewBox="0 0 18 18" fill="none" xmlns="http://www.w3.org/2000/svg">
<circle cx="9" cy="1.75" r="1.75" fill="_COLOR_VAR_"/>
<path d="M7.01269 4.87082C7.46304 4.60592 8.11576 4.37505 9 4.375C9.88424 4.37505 10.537 4.60592 10.9873 4.87082C11.2094 5.00144 11.3758 5.13651 11.4931 5.24759C11.5517 5.3031 11.5981 5.35269 11.6331 5.39289C11.6584 5.42188 11.6813 5.45117 11.7056 5.48249L14.2119 8.99142C14.4928 9.38465 14.4018 9.93113 14.0085 10.212C13.6153 10.4929 13.0688 10.4018 12.7879 10.0086L10.8119 7.24212C10.8841 8.41591 11.033 10.2063 11.3214 11.6445C11.3258 11.6666 11.33 11.6882 11.3338 11.7092C11.3366 11.7208 11.3391 11.7317 11.3415 11.7421C11.3482 11.7717 11.3534 11.7965 11.3571 11.8156L11.361 11.8362L12.3579 16.8285C12.4525 17.3024 12.1451 17.7633 11.6712 17.8579C11.1973 17.9526 10.7364 17.6451 10.6418 17.1712L9.64076 12.1584L9.63949 12.1508C9.63886 12.1477 9.63739 12.1404 9.63496 12.1297C9.62976 12.1068 9.62045 12.0693 9.60605 12.0223C9.57625 11.9251 9.52985 11.8043 9.464 11.6915C9.33333 11.4678 9.19934 11.3758 9.00213 11.376H8.99787C8.80066 11.3758 8.66667 11.4678 8.536 11.6915C8.47015 11.8043 8.42375 11.9251 8.39395 12.0223C8.37955 12.0693 8.37024 12.1068 8.36504 12.1297C8.36261 12.1404 8.36114 12.1477 8.36051 12.1508L8.35924 12.1584L7.35823 17.1712C7.2636 17.6451 6.80271 17.9526 6.32882 17.8579C5.85493 17.7633 5.54748 17.3024 5.64211 16.8285L6.63904 11.8362L6.64291 11.8156C6.64665 11.7965 6.65178 11.7717 6.65852 11.7421C6.66087 11.7317 6.66342 11.7208 6.66619 11.7092C6.67004 11.6882 6.67418 11.6666 6.67861 11.6445C6.96702 10.2063 7.11595 8.41591 7.18813 7.24212L5.21208 10.0086C4.9312 10.4018 4.38472 10.4929 3.99148 10.212C3.59825 9.93113 3.50717 9.38465 3.78805 8.99142L6.29443 5.48249C6.31875 5.45117 6.34163 5.42188 6.36689 5.39289C6.40192 5.35269 6.44831 5.3031 6.50691 5.24759C6.62417 5.13651 6.79064 5.00144 7.01269 4.87082Z" fill="_COLOR_VAR_"/>
</svg>

<svg xmlns="http://www.w3.org/2000/svg" width="18" height="18"><circle cx="9" cy="1.75" r="1.75"/><path d="M7.013 4.87c.45-.264 1.103-.495 1.987-.495s1.537.23 1.987.496c.222.13.389.266.506.377a2 2 0 0 1 .213.234l2.506 3.51a.875.875 0 1 1-1.424 1.017l-1.976-2.767c.072 1.174.221 2.964.51 4.403l.012.064.008.033.015.074.004.02.997 4.992a.875.875 0 1 1-1.716.343L9.64 12.158l-.002-.007-.004-.021a1.6 1.6 0 0 0-.171-.438c-.13-.224-.265-.316-.462-.316h-.004c-.197 0-.331.092-.462.316a1.6 1.6 0 0 0-.171.438l-.004.02-.002.008-1 5.013a.875.875 0 1 1-1.717-.343l.997-4.992.004-.02.023-.107.013-.064c.288-1.439.437-3.23.51-4.403L5.211 10.01a.875.875 0 0 1-1.423-1.02l2.506-3.509a2 2 0 0 1 .213-.234c.117-.111.284-.247.506-.377"/></svg>
